src/assets/duotone/Additem.svg

<svg width="24" height="24" viewBox="0 0 24 24"  xmlns="http://www.w3.org/2000/svg">
<path opacity="0.4" d="M18.5698 22H13.9998C11.7098 22 10.5698 20.86 10.5698 18.57V11.43C10.5698 9.14 11.7098 8 13.9998 8H18.5698C20.8598 8 21.9998 9.14 21.9998 11.43V18.57C21.9998 20.86 20.8598 22 18.5698 22Z" />
<path d="M13.43 5.43V6.77C10.81 6.98 9.32 8.66 9.32 11.43V16H5.43C3.14 16 2 14.86 2 12.57V5.43C2 3.14 3.14 2 5.43 2H10C12.29 2 13.43 3.14 13.43 5.43Z" />
<path d="M18.1301 14.2501H17.2501V13.3701C17.2501 12.9601 16.9101 12.6201 16.5001 12.6201C16.0901 12.6201 15.7501 12.9601 15.7501 13.3701V14.2501H14.8701C14.4601 14.2501 14.1201 14.5901 14.1201 15.0001C14.1201 15.4101 14.4601 15.7501 14.8701 15.7501H15.7501V16.6301C15.7501 17.0401 16.0901 17.3801 16.5001 17.3801C16.9101 17.3801 17.2501 17.0401 17.2501 16.6301V15.7501H18.1301C18.5401 15.7501 18.8801 15.4101 18.8801 15.0001C18.8801 14.5901 18.5401 14.2501 18.1301 14.2501Z" />
</svg>

<?xml version="1.0" encoding="UTF-8"?>
<svg width="24" height="24" viewBox="0 0 24 24" xmlns="http://www.w3.org/2000/svg">
 <path d="m18.57 22h-4.57c-2.29 0-3.43-1.14-3.43-3.43v-7.14c0-2.29 1.14-3.43 3.43-3.43h4.57c2.29 0 3.43 1.14 3.43 3.43v7.14c0 2.29-1.14 3.43-3.43 3.43z" opacity=".4"/>
 <path d="M13.43 5.43V6.77C10.81 6.98 9.32 8.66 9.32 11.43V16H5.43C3.14 16 2 14.86 2 12.57V5.43C2 3.14 3.14 2 5.43 2H10C12.29 2 13.43 3.14 13.43 5.43Z"/>
 <path d="m18.13 14.25h-0.88v-0.88c0-0.41-0.34-0.75-0.75-0.75s-0.75 0.34-0.75 0.75v0.88h-0.88c-0.41 0-0.75 0.34-0.75 0.75s0.34 0.75 0.75 0.75h0.88v0.88c0 0.41 0.34 0.75 0.75 0.75s0.75-0.34 0.75-0.75v-0.88h0.88c0.41 0 0.75-0.34 0.75-0.75s-0.34-0.75-0.75-0.75z"/>
</svg>
